Numix-GalliumOS/48/emblems/emblem-presentation.svg

<?xml version="1.0" encoding="UTF-8" standalone="no"?>
<svg
   xmlns:dc="http://purl.org/dc/elements/1.1/"
   xmlns:cc="http://creativecommons.org/ns#"
   xmlns:rdf="http://www.w3.org/1999/02/22-rdf-syntax-ns#"
   xmlns:svg="http://www.w3.org/2000/svg"
   xmlns="http://www.w3.org/2000/svg"
   xmlns:sodipodi="http://sodipodi.sourceforge.net/DTD/sodipodi-0.dtd"
   xmlns:inkscape="http://www.inkscape.org/namespaces/inkscape"
   width="48"
   viewBox="0 0 48 48"
   height="48"
   id="svg2"
   version="1.1"
   inkscape:version="0.91 r13725"
   sodipodi:docname="emblem-presentation.svg">
  <metadata
     id="metadata24">
    <rdf:RDF>
      <cc:Work
         rdf:about="">
        <dc:format>image/svg+xml</dc:format>
        <dc:type
           rdf:resource="http://purl.org/dc/dcmitype/StillImage" />
      </cc:Work>
    </rdf:RDF>
  </metadata>
  <defs
     id="defs22" />
  <sodipodi:namedview
     pagecolor="#ffffff"
     bordercolor="#666666"
     borderopacity="1"
     objecttolerance="10"
     gridtolerance="10"
     guidetolerance="10"
     inkscape:pageopacity="0"
     inkscape:pageshadow="2"
     inkscape:window-width="1366"
     inkscape:window-height="704"
     id="namedview20"
     showgrid="false"
     inkscape:object-nodes="true"
     inkscape:zoom="1"
     inkscape:cx="20.160418"
     inkscape:cy="8.3991621"
     inkscape:window-x="0"
     inkscape:window-y="27"
     inkscape:window-maximized="1"
     inkscape:current-layer="svg2">
    <inkscape:grid
       type="xygrid"
       id="grid4152" />
  </sodipodi:namedview>
  <g
     style="stroke:#777"
     id="g4">
    <path
       style="fill:#fff;stroke-width:.5"
       d="m 25.932203,35.18644 a 12.254237,12.508474 0 1 1 -24.5084741,0 12.254237,12.508474 0 1 1 24.5084741,0 z"
       transform="matrix(1.59979 0 0 1.56727 2.11819 -31.14659)"
       id="path6" />
  </g>
  <g
     style="fill:#dc322f"
     transform="matrix(.60854 0 0 .60854 9.39496 10.7247)"
     id="g8">
    <path
       d="m 24.000132,34.961219 -8.216387,9.859664 8.216387,-5.047838 8.216387,5.047838 -8.216387,-9.859664 z"
       id="path10"
       inkscape:connector-curvature="0" />
  </g>
  <g
     transform="translate(0 .80008)"
     id="g14">
    <path
       style="fill:#dc322f"
       d="M 11 15 L 11 18 L 12 18 L 12 33 L 36 33 L 36 18 L 37 18 L 37 15 L 11 15 z "
       transform="translate(0,-0.80008)"
       id="path16" />
  </g>
</svg>

<svg xmlns="http://www.w3.org/2000/svg" viewBox="0 0 48 48">
 <g style="stroke:#777">
  <path d="m 25.932 35.19 a 12.254 12.508 0 1 1 -24.508 0 12.254 12.508 0 1 1 24.508 0 z" transform="matrix(1.59979 0 0 1.56727 2.11819 -31.14659)" style="fill:#fff;stroke-width:0.5"/>
 </g>
 <g transform="matrix(.60854 0 0 .60854 9.39496 10.7247)" style="fill:#dc322f">
  <path d="m 24 34.961 -8.216 9.86 8.216 -5.05 8.216 5.05 -8.216 -9.86 z"/>
 </g>
 <g transform="translate(0 .80008)">
  <path d="m 11 15 l 0 3 l 1 0 l 0 15 l 24 0 l 0 -15 l 1 0 l 0 -3 l -26 0 z" transform="translate(0,-0.80008)" style="fill:#dc322f"/>
 </g>
</svg>
